X:1510
T:Argyll's Bowling Green
P:Argyll's Bowling Green
C:Gow
R:Reel (8x32)
B:RSCDS 15-10
Z:Anselm Lingnau <anselm@strathspey.org>
M:C
L:1/8
K:C
E|"C"C2c2 c>ded|"F"cdcA "G7"GFED|"C"C2c2 c>dec|"G"d>B "C"c>E "G7"D3 E|
  "C"C2c2 c>ded|"F"cdcA "G7"GFED|"C"C2c2 cdec|"G"d>B "C"c>E "G7"D3||
A|"C"G>EcE GEEA|GEcG E3 A|GEcE GEEF|GAGE "G7"D3 a|
  "C"gec'e geef|gec'g e3 a|gec'e geef|gage "G7"d3 e|]
